X:3
T:Polska i A efter John-Erik Mattson, Rtan
A:Digerberget, S. Jmtland
O:Sweden
Z:Lennart Sohlman, lta, Sweden
M:3/4
L:1/8
Q:150
K:A
A>c e3 e|(3fgf e3 (E|G)>A Bc de|(3f(gf) (3e(fe) (c2|\
A>)c e3 e|(3fgf e3 (E|A)>c de fg|a2 a4::\
vd2 (f>d) fa|(ab/a/) .g.e c2|(3c(dc) BE GB|(3B(cB) A>c e>>ue|\
vd2 (f>d) fa|(ab/a/) .g.e c2|(3c(dc) BE GB|((3BcB) A4:|\
T:Understmma\
|:E>A c3 c|(3dBd c3 (A|B>)E GA Bc|(3d(ed) (3c(dc) A2|\
E>A c3 c|(3dBd c3 (c|A>)E FA dB|[c2e2][c4e4]::\
(DF) (A>F) Af|(fg/f/) ec A2|(3A(BA) GB BE|(3B(AG) E>A (3c(BA)|\
(DF) (A>F) Af|(fg/f/) ec A2|(3A(BA) GB BE|((3BAB) [E4c4]:|
